X:2687
L:1/8
M:12/8
K:G
|: d^cd e2 d BAB d2 B | A3 AGA B2 A G2 B | d^cd e2 d BAB d2 B | A3 B2 A G3 z2 z :: d3 def g3 gfg | 
 a3 aga b2 a gfe | ded def g3 gab | a2 g f2 e def g3 :: g3 d3 BdB G3 | A3 DEF G2 B d3 | 
 g3 d3 BdB G3 | A3 DEF G2 B G3 :|

